assets/emojis/GrinningFace.svg

<svg width="126" height="126" viewBox="0 0 126 126" fill="none" xmlns="http://www.w3.org/2000/svg">
<circle cx="62.8994" cy="63.1494" r="62.3496" fill="#F9B42F"/>
<path opacity="0.3" fill-rule="evenodd" clip-rule="evenodd" d="M113.832 99.3217C102.511 110.913 86.7084 118.109 69.2255 118.109C34.7908 118.109 6.87591 90.1937 6.87591 55.7589C6.87591 42.3633 11.1004 29.9543 18.2897 19.7915C7.31201 31.0306 0.546875 46.4024 0.546875 63.3543C0.546875 97.789 28.4617 125.704 62.8965 125.704C83.9355 125.704 102.541 115.283 113.832 99.3217Z" fill="#BC8417"/>
<path d="M43.1796 58.9608L36.5945 60.9327C35.5634 61.2414 34.9771 62.325 35.2849 63.353C35.5927 64.3809 36.6781 64.964 37.7092 64.6552L44.2943 62.6833C45.3254 62.3746 45.9117 61.291 45.6039 60.263C45.2961 59.2351 44.2107 58.652 43.1796 58.9608Z" fill="#2C2A46"/>
<path d="M82.6294 62.6864L89.2258 64.6617C90.2569 64.9704 91.3423 64.3874 91.6501 63.3594C91.9579 62.3315 91.3716 61.2479 90.3405 60.9391L83.7441 58.9638C82.713 58.6551 81.6276 59.2381 81.3198 60.2661C81.012 61.294 81.5983 62.3776 82.6294 62.6864Z" fill="#2C2A46"/>
<path d="M79.4705 71.5459H46.3225C43.6505 71.5459 42.68 74.6982 44.5706 76.6098C48.7172 80.7622 54.3259 85.4717 62.8839 85.4717C71.4419 85.4717 77.0506 80.7243 81.1972 76.6098C83.113 74.6982 82.1425 71.5459 79.4705 71.5459Z" fill="#2C2A46"/>
</svg>

<svg xmlns="http://www.w3.org/2000/svg" width="126" height="126" fill="none" viewBox="0 0 126 126"><circle cx="62.899" cy="63.149" r="62.35" fill="#f9b42f"/><path fill="#bc8417" fill-rule="evenodd" d="M113.832 99.322c-11.321 11.591-27.124 18.787-44.606 18.787-34.435 0-62.35-27.915-62.35-62.35 0-13.396 4.224-25.805 11.414-35.967C7.312 31.03.547 46.402.547 63.354c0 34.435 27.915 62.35 62.35 62.35 21.039 0 39.644-10.421 50.935-26.382" clip-rule="evenodd" opacity=".3"/><path fill="#2c2a46" d="m43.18 58.96-6.586 1.973a1.946 1.946 0 0 0-1.31 2.42 1.946 1.946 0 0 0 2.425 1.302l6.585-1.972a1.946 1.946 0 0 0 1.31-2.42 1.946 1.946 0 0 0-2.424-1.302m39.45 3.725 6.596 1.976a1.946 1.946 0 0 0 2.424-1.303 1.946 1.946 0 0 0-1.31-2.42l-6.596-1.975a1.946 1.946 0 0 0-2.424 1.302 1.946 1.946 0 0 0 1.31 2.42m-3.16 8.86H46.324c-2.672 0-3.643 3.152-1.752 5.064 4.146 4.152 9.755 8.862 18.313 8.862s14.167-4.748 18.313-8.862c1.916-1.912.945-5.064-1.727-5.064"/></svg>
